X: 4956
T: Breith Chriosd
R: waltz
M: 3/4
K: Fmajor
FG|A2G2F2|D2C2B,2|D2G2G2|G4FG|
A2G2F2|D2C2B,2|C2F2F2|F4CC|
A2A2B2|c2B2A2|A2G2F2|G4FG|
A2G2F2|D2C2B,2|C2F2F2|F4||

